X:1
T:James Gibb editions
T:Psalm 62 (Becker) - Schütz
%%score [ ( 1 2 ) ( 3 4 ) ]
L:1/8
Q:1/4=100
M:2/2
K:C
V:1 treble nm="Soprano Alto"
V:2 treble 
V:3 bass nm="Tenor Bass"
V:4 bass 
V:1
"^Cornelius Becker\n(1561-1604)""^Psalm 62, SWV 159""^Heinrich Schütz\n(1585-1672)" C4 E2 F2 | %1
w: ~Mein Seel ist|
w: er ist mein|
 G2 E2 F2 G2 | E2 G2 A2 c2 | B2 G2 A4 | G4 :|[M:2/2] G4 c2 G2 | A2 E2 (AG) F2 | E4 G4 | %8
w: still in mei- nem|Gott, der mir stets|hilft aus Nö-|ten,|kein Un- fall|wird mich stür\- * zen|nicht, den|
w: Hülf, mein Schatz, mein|Hort, er kann und|will mich ret-|ten,||||
 A2 B2 c2 d2 | (cB) A2 G4 | E4 F2 A2 | G3 E (FE D2) | C8 |] %13
w: mir der Feind hat|||||
w: |||||
V:2
 G,4 C2 C2 | C2 B,2 D2 D2 | C2 B,2 D2 E2 | D2 B,2 D4 | D4 :|[M:2/2] C4 E2 E2 | C2 C2 C2 D2 | %7
w: |||||||
 G,4 C4 | C2 D2 E2 D2 | (ED) D2 D4 | C4 C2 C2 | C3 C (D C2 B,) | C8 |] %13
w: ||zu\- * ge- richt|mit gro- ßer|Macht und Li\- * *|sten.|
V:3
 E,4 A,2 A,2 | E,2 G,2 A,2 B,2 | G,2 E,2 ^F,2 G,2 | ^F,2 G,4 !courtesy!^F,2 | G,4 :| %5
[M:2/2] E,4 A,2 B,2 | A,2 G,2 (F,G,) A,2 | C4 E,4 | E,2 G,2 G,2 G,2 | %9
"^4. Mein Seele harret nur auf Gott, \nder soll mein Hoffnung bleiben, \ner ist mein Hülf, mein Schutz, mein Hort,\nwenn sie zum Fall mich treiben, \nbei Gott ist mein Heil, meine Ehr, \nmein starker Fels! Zum Schutz, zur Wehr,\nauf ihn ich mich verlasse.\n\n5. Ach, lieben Leut, hofft ja auf Gott,\nallzeit fest ihm vertrauet, \nschütt´ aus eu'r Herz in aller Not \nvor Gott, fest auf ihn bauet! \nDer Herr ist unsre Zuversicht, \ner wird uns g'wiß verlassen nicht \nin allen unsern Nöten." (E,G,) ^F,2 G,4 | %10
 G,4 A,2 F,2 | %11
 E,3"^6. Die Menschenkind seind doch nichts wert, \nso viel ihr'r sind auf Erden,\nauch die so groß und hoch geehrt,\nzunicht ihr Anschläg werden;\nwen'ger denn nichts sie wägen all,\nihr Pracht, Ruhm, Witz, Kunst allzumal \nist eitel und vergebens.\n\n8. Gott hat ein teures Wort gered't \nin seiner lieben G'meine, \nich hab es etlich Mal gehört: \nGott ist mächtig alleine. \nDu, Herr, bist gnädig und gerecht, \ndu zahlst und gibst ein'm jeden Knecht \nnach sein'm Verdienst und Werke." G, (_B,/A,/G,/F,/ G,2) | %12
 G,8 |] %13
V:4
 C,4 A,,2 F,,2 | C,2 E,2 D,2 G,,2 | C,2 E,2 D,2 C,2 | D,2 E,2 D,4 | G,,4 :|[M:2/2] C,4 A,,2 E,2 | %6
 F,2 C,2 (F,E,) D,2 | C,4 C,4 | A,,2 G,,2 C,2 B,,2 | (C,G,,) D,2 G,,4 | C,4 F,2 F,2 | %11
 C,3 C, (_B,,C, G,,2) | C,8 |] %13

